X: 10
T: Fred Finn's
Z: JACKB
S: https://thesession.org/tunes/452#setting47116
R: reel
M: 4/4
L: 1/8
K: Dmaj
|:A3F ABde|fdec d2cd|BE E2 G3B|AF F2 dFAF|
A3F ABde|fdec d2cd|BAGB ABde|faeg fdd2:|
|:fdaf bfaf|dfaf fee2|fbba b3a|faba fe e2|
fdaf bfaf|dfaf gfed|BAGB ABde|faeg fdd2:|

